X:1
T:Title
%%score [ 1 2 3 4 ]
L:1/8
Q:1/4=120
M:2/2
K:G
V:1 treble nm="S."
V:2 treble nm="A."
V:3 treble-8 nm="T."
V:4 bass nm="B."
V:1
"^As you like it""^V iii 18" z2 G2 | B3 c d2 d2 |"^It was a lover and his lass" c2 B2 A2 AB | %3
w: It|was a lo- ver|and his lass, with a|
w: And|there- fore take the|pre- sent time, * *|
 c2 cd e2"^Thomas Morley""^1557-1603" e=f |[M:2/2] g6 =fe | d2 Bc d4- | d2 cB c2 A2 | G8 | %8
w: hey and a ho and a|hey no- ni-|no, and a hey|* no- ni no- ni-|no,|
w: |||||
 z4 z2 d2 | d2 d2 e2 d2 | c2 B2 A2 A2 | e4 ^c2 A2 | d4 B2 d2 | g4 e2 c2 | e2 d2 c2 B2 | d4 B2 G2 | %16
w: that|o'er the green corn-|field did pass, in|spring time, in|spring time, in|spring time, the|on- ly pret- ty|ring time, when|
w: for|love is crown- ed|with the prime, *||||||
 c2 B2 A2 d2 | dcBA G2 g2 | g=fed c2 e2 | edcB A2 c2 | B3 B A3 A | G2 G2 d4 | B4 z4 | %23
w: birds do sing Hey|ding a ding a ding, hey|ding a ding a ding, hey|ding a ding a ding, sweet|lo- vers love the|spring in spring|time,|
w: |||||||
 z2 d2 g4 e2 c2 | e4 d2 c4 B2 | d4 B2 G2 | c2 B2 A2 d2 | d c B A G2 g2 |[M:2/2] g=fed c2 e2 | %29
w: in spring time, the|on- ly pret- ty|ring time, when|birds do sing Hey|ding a ding a ding, hey|ding a ding a ding, hey|
w: ||||||
 edcB A2 c2 | B3 B A3 A | G8 |] %32
w: ding a ding a ding, sweet|lo- vers love the|spring.|
w: |||
V:2
 G4 | G3 G G2 (FG) | A2 G2 F2 =FF | E2 AA G=F E2 |[M:2/2] c(B/A/ G)A B2 Bc | d6 cB | A2 G2 G2 F2 | %7
w: It|was a lo- ver *|and his lass, with a|hey and a ho and a|hey no * * ni- no, and a|hey no- ni|no- ni no- ni-|
w: And|there- fore take the *|pre- sent time, * *|||||
 G6 B2 | AG G4 F2 | G2 B2 c2 B2 | A2 ^G2 A2 A2- | A2 ^G2 A4 | z2 F2 G4 | D2 B2 c4- | c2 B2 A2 G2- | %15
w: no, that|o'er the green corn-|field, the green corn-|field did pass, in|* spring time,|in spring|time, the on|* ly pre- ty|
w: * for|love is crown- ed,|love is crown- ed|with the prime, *|||||
 G2 F2 G4 | A2 G4 F2 | G2 z2 G2 G=F | ED C2 z2 c2 | cBAG F2 A2 | AG G4 F2 | G2 D2 D4- | %22
w: * ring time,|when birds do|sing Hey ding a|ding a ding, hey|ding a ding a ding, sweet|lo- vers love the|spring, sweet lo|
w: |||||||
 D2 B,2 D3 C | B,4 z2 B2 c2 G2 | c4 B2 A4 G2- | G2 F2 G4 | A2 G4 F2 | G2 z2 G2 G=F | %28
w: * vers love the|spring, spring time, the|on- ly pret- ty|* ring time,|when birds do|sing Hey ding a|
w: ||||||
[M:2/2] ED C2 z2 c2 | cBAG F2 A2 | AG G4 F2 | G8 |] %32
w: ding a ding, hey|ding a ding a ding, sweet|lo- vers love the|spring.|
w: ||||
V:3
 B4 | d3 c B2 A2 | A2 (Bc) d2 dd | A2 ee c2 gg |[M:2/2][K:treble-8] e4 d3 c | B2 GG g4 | %6
w: It|was a lo- ver|and his * lass, with a|hey and a ho and a|hey no- ni-|no, and a hey|
w: And|there- fore take the|pre- sent * time, * *||||
 f2 g2 ee dc | B6 d2 | d2 B2 A2 (dc) | B2 d2 g3 =f | e3 d ^c2 =c2 | B4 A4 | z2 d2 d4 | B2 G2 g4 | %14
w: no- ni no- ni no- ni-|no. that|o'er the green corn *|field, the green corn-|field did pass, in|spring time,|in spring|time, the on-|
w: |* for|love is crown- ed, *|love is crown- ed|with the prime, *||||
 e2 =f4 d2 | d4 d2 B2 | A2 (Bc) d4 | d2 dcBA G2 | g2 g=fed c2 | g2 ee A2 e2 | e2 d2 d3 c | %21
w: ly pret- ty|ring time, when|birds do * sing|Hey ding a ding a ding,|hey ding a ding a ding,|hey ding a ding, sweet|lo- vers love the|
w: |||||||
 B2 B2 A4 | G2 G4 F2 | G4 z2 d2 c2 e2 | g4 g2 (e2 d2) G2 | A4 G2 B2 | A2 (B c) d4 | d2 dc BA G2 | %28
w: spring, sweet lo-|vers love the|spring, spring time, the|on- ly pret * ty|ring time, when|birds do * sing|Hey ding a ding a ding,|
w: |||||||
[M:2/2][K:treble-8] g2 g=fed c2 | g2 ee A2 e2 | e2 d2 d3 c | B8 |] %32
w: hey ding a ding a ding,|hey ding a ding, sweet|lo- vers love the|spring.|
w: ||||
V:4
 G,4 | G,3 G, G,2 (D,E,) | F,2 G,2 D,2 z2 | z2 A,,B,, C,2 C,D, |[M:2/2] E,2 E,=F, G,4- | %5
w: It|was a lo- ver *|and his lass,|with a hey and a|ho and a hey|
w: And|there- fore take the *|pre- sent time,|||
 G,2 G,,A,, B,,2 C,C, | D,2 G,G, C,2 D,2 | G,6 G,2 | F,2 G,2 D,2 D,2 | G,,2 G,2 C,2 G,2 | %10
w: * no- ni- no, and a|hey no- ni no- ni-|no, that|o'er the green corn-|field, the green corn-|
w: ||* for|love is crown- ed,|love is crown- ed|
 A,2 E,2 A,,2 A,2 | E,4 A,,4 | z2 D,2 G,4 |"^This edition  Andrew Sims 2000" G,2 G,,2 C,4 | %14
w: field did pass, in|spring time,|in spring|time, the on-|
w: with the prime, *||||
 C,2 (D,E, =F,2) G,2 | D,4 G,,2 G,2 | F,2 (G,2 D,4) | G,,2 G,2 G,=F,E,D, | C,6 C,2 | %19
w: ly pre * * ty|ring time, when|birds do *|sing Hey ding a ding a|ding, hey|
w: |||||
 C,3 C, D,2 A,,2 | E,2 G,2 D,2 D,2 | G,,2 G,2 G,2 F,2 | G,4 D,4 | G,,4 z2 G,2 C,2 C,2 | %24
w: ding a ding, sweet|lo- vers love the|spring, sweet lo- vers|love the|spring, spring time, the|
w: |||||
 (C, D, E, =F, G,2) A,2 ^F,2 G,2 | D,4 G,,2 G,2 | F,2 (G,2 D,4) | G,,2 G,2 G,=F,E,D, | %28
w: on * * * * ly pret- ty|ring time, when|birds do *|sing Hey ding a ding a|
w: ||||
[M:2/2] C,6 C,2 | C,3 C, D,2 A,,2 | E,2 G,2 D,2 D,2 | G,,8 |] %32
w: ding, hey|ding a ding, sweet|lo- vers love the|spring.|
w: ||||

